X:1
T:James Gibb editions
T:Standing forth in life's rough way - Barnby
%%score [ ( 1 2 ) ( 3 4 ) ]
L:1/8
Q:1/4=90
M:4/4
K:Eb
V:1 treble nm="Midi_74"
V:2 treble 
V:3 bass nm="Midi_74"
V:4 bass 
V:1
"^West Dean (74. 74. D)""^Standing forth in life's rough way""^Joseph Barnby\n(1838-96)""^William Bryant\n(1850-?)" G3 G | %1
 G2 D2 E2 C2 | G4 || G2 (c2 | B4 A4 | G4) || c3 c | B2 =A2 G2 A2 | B4 || e2 G2 | (d4 c4) | B4 || %12
[M:4/4] F3"^1" F | F2 G2 A2 B2 | G4 || A2 A2 | (B4 _d4) | c4 || e2 c2 | B2 G2 B2 A2 | G4 || F2 C2 | %22
 (E4 F4) | E4 || E4 E4 |] %25
V:2
 G3 G | G2 D2 E2 C2 | G4 || E2 E2 | E4 D4 | E4 || G3 G | G2 ^F2 G2 F2 | (G2 !courtesy!=F2) || %9
 E2 G2 | (F4 E4) | D4 ||[M:4/4] D3 D | D2 =E2 F2 G2 | =E4 || F2 F2 | (F4 E4) | E4 || A2 E2 | %19
 F2 E2 G2 F2 | D4 || C2 C2 | (B,4 D4) | E4 || C4 B,4 |] %25
V:3
 G,3 G, | G,2 D,2 E,2 C,2 | G,4 || G,2 F,2 | (F,4 B,4) | B,4 || E3 E | D2 D2 D2 D2 | D4 || C2 B,2 | %10
 =A,8 | B,4 ||[M:4/4] B,3 B, | B,2 B,2 C2 _D2 | C4 || %15
"^1 Standing forth on life’s rough way,\nFather, guide them;\nO, we know not what ere long\nMay betide them!\n'Neath the shadow of thy wing,\nFather, hide them;\nWaking, sleeping, Lord, we pray,\nGo beside them.\n\n2 When in prayer they cry to thee,\nThou wilt hear them;\nFrom the stains of sin and shame\nThou wilt clear them;\n'Mid the quicksands and the rocks,\nThou wilt steer them;\nIn temptation, trial, grief,\nBe Thou near them.\n\n3 Unto Thee we give them up;\nLord, receive them;\nIn the world we know must be\nMuch to grieve them;\nMany striving oft and strong\nTo deceive them;\nTrustful, in thy hands of love\nWe must leave them." C2 C2 | %16
 (B,2 A,2 G,4) | A,4 || C2 A,2 | F,2 B,2 _D2 C2 | =B,4 || C2 A,2 | (G,4 A,4) | G,4 || A,4 G,4 |] %25
V:4
 G,3 G, | G,2 D,2 E,2 C,2 | G,4 || C,2 A,,2 | B,,8 | E,4 || C,3 C, | D,2 C2 B,2 =A,2 | G,4 || %9
 C,2 C,2 | F,8 | B,,4 ||[M:4/4] B,3 B, | A,2 G,2 F,2 B,,2 | C,4 || F,2 F,2 | (_D,4 E,4) | A,,4 || %18
 A,,2 C,2 | !courtesy!=D,2 E,2 =E,2 F,2 | G,4 || A,2 A,,2 | B,,8 | E,4 || A,,4 E,4 |] %25

